web/public/SkinImg/link.svg

<svg xmlns="http://www.w3.org/2000/svg" x="0px" y="0px" width="100" height="100" viewBox="0 0 128 128">
<path d="M 84 11 C 82.3 11 81 12.3 81 14 C 81 15.7 82.3 17 84 17 L 106.80078 17 L 60.400391 63.400391 C 59.200391 64.600391 59.200391 66.499609 60.400391 67.599609 C 61.000391 68.199609 61.8 68.5 62.5 68.5 C 63.2 68.5 63.999609 68.199609 64.599609 67.599609 L 111 21.199219 L 111 44 C 111 45.7 112.3 47 114 47 C 115.7 47 117 45.7 117 44 L 117 14 C 117 12.3 115.7 11 114 11 L 84 11 z M 24 31 C 16.8 31 11 36.8 11 44 L 11 104 C 11 111.2 16.8 117 24 117 L 84 117 C 91.2 117 97 111.2 97 104 L 97 59 C 97 57.3 95.7 56 94 56 C 92.3 56 91 57.3 91 59 L 91 104 C 91 107.9 87.9 111 84 111 L 24 111 C 20.1 111 17 107.9 17 104 L 17 44 C 17 40.1 20.1 37 24 37 L 69 37 C 70.7 37 72 35.7 72 34 C 72 32.3 70.7 31 69 31 L 24 31 z" />
</svg>

<svg xmlns="http://www.w3.org/2000/svg" x="0px" y="0px" width="100" height="100" viewBox="0,0,256,256">
    <g fill="rgba(255,255,255,0.7)" fill-rule="nonzero" stroke="none" stroke-width="1" stroke-linecap="butt" stroke-linejoin="miter" stroke-miterlimit="10" stroke-dasharray="" stroke-dashoffset="0" font-family="none" font-weight="none" font-size="none" text-anchor="none" style="mix-blend-mode: normal"><g transform="scale(2,2)"><path d="M84,11c-1.7,0 -3,1.3 -3,3c0,1.7 1.3,3 3,3h22.80078l-46.40039,46.40039c-1.2,1.2 -1.2,3.09922 0,4.19922c0.6,0.6 1.39961,0.90039 2.09961,0.90039c0.7,0 1.49961,-0.30039 2.09961,-0.90039l46.40039,-46.40039v22.80078c0,1.7 1.3,3 3,3c1.7,0 3,-1.3 3,-3v-30c0,-1.7 -1.3,-3 -3,-3zM24,31c-7.2,0 -13,5.8 -13,13v60c0,7.2 5.8,13 13,13h60c7.2,0 13,-5.8 13,-13v-45c0,-1.7 -1.3,-3 -3,-3c-1.7,0 -3,1.3 -3,3v45c0,3.9 -3.1,7 -7,7h-60c-3.9,0 -7,-3.1 -7,-7v-60c0,-3.9 3.1,-7 7,-7h45c1.7,0 3,-1.3 3,-3c0,-1.7 -1.3,-3 -3,-3z"></path></g></g>
</svg>
